src/icons/svg/refine.svg

<svg width="24" height="24" viewBox="0 0 24 24" fill="none" xmlns="http://www.w3.org/2000/svg">
<path fill-rule="evenodd" clip-rule="evenodd" d="M13.3416 3.31672C12.4971 2.89443 11.5029 2.89443 10.6584 3.31672L4.65836 6.31672C3.64201 6.82489 3 7.86368 3 9V15C3 16.1363 3.64201 17.1751 4.65836 17.6833L10.6584 20.6833C11.5029 21.1056 12.4971 21.1056 13.3416 20.6833L19.3416 17.6833C20.358 17.1751 21 16.1363 21 15V9C21 7.86368 20.358 6.82489 19.3416 6.31672L13.3416 3.31672ZM9 9C9 7.34315 10.3431 6 12 6C13.6569 6 15 7.34315 15 9V15C15 16.6569 13.6569 18 12 18C10.3431 18 9 16.6569 9 15V9Z" fill="#414146"/>
<path d="M13.5 9C13.5 9.82843 12.8284 10.5 12 10.5C11.1716 10.5 10.5 9.82843 10.5 9C10.5 8.17157 11.1716 7.5 12 7.5C12.8284 7.5 13.5 8.17157 13.5 9Z" fill="#414146"/>
</svg>

<svg xmlns="http://www.w3.org/2000/svg" width="24" height="24" fill="none"><path fill="#414146" fill-rule="evenodd" d="M13.342 3.317a3 3 0 0 0-2.684 0l-6 3A3 3 0 0 0 3 9v6a3 3 0 0 0 1.658 2.683l6 3a3 3 0 0 0 2.684 0l6-3A3 3 0 0 0 21 15V9a3 3 0 0 0-1.658-2.683zM9 9a3 3 0 1 1 6 0v6a3 3 0 1 1-6 0z" clip-rule="evenodd"/><path fill="#414146" d="M13.5 9a1.5 1.5 0 1 1-3 0 1.5 1.5 0 0 1 3 0"/></svg>
